!!!!SEGMENT: pl-sa--481-a-viii-121--001_boieldieu-adrien--le-calife-de-bagdad.krn
!!!cenid: 18xx:372
!!!COM: Boieldieu, Adrien
!!!COM-rismid: pe23607
!!!CDT: 1775/12/16-1834/10/08
!!!CNT: French
!!!OTL: Le Calife de Bagdad
!!!PDT:
!!!AGN: Secular
!!!SMS-siglum: PL-SA
!!!SMS-shelfmark: 481/A VIII 121
!!!SMS-shelfwork: 001 W
!!!SMS-variant:
!!!SMS-altvar:
!!!NIFC-rismid: 1001070425
!!!URL-scan: http://bc.bdsandomierz.pl/dlibra/publication/1212/edition/1171/content
!!!ONB-nifc: Str. 3, s. 1-3
**kern	**kern
*part1	*part1
*staff2	*staff1
*Ipiano	*Iempty
*I"Piano	*
*I'P-no	*
*clefF4	*clefG2
*k[f#]	*k[f#]
*G:	*G:
*M2/4	*M2/4
!	!LO:TX:b:i:t=La Bagdad
8r	16b\LL
.	16cc\JJ
=1	=1
8BL 8G\	8dd'\L
8d\J	8dd'\
*rep	*
8BL 8G\	(8dd\
8d\J	8gg\J)
*Xrep	*
=2	=2
*rep	*
8BL 8G\	8dd'\L
8d\J	8dd'\
*Xrep	*
*rep	*
8BL 8G\	(8dd\
8d\J	8b\J)
*Xrep	*
=3	=3
*rep	*
8BL 8G\	8g/L
8d\J	8g/J
*Xrep	*
8cL 8F#\	16b/LL
.	16a/
8d\J	16g/
.	16a/JJ
=4	=4
8BL 8G\	8b/L
8d\	8g/
8BJ 8G\	8g/J
8r	16b\LL
.	16cc\JJ
=5	=5
*rep	*
8BL 8G\	8dd\L
8d\J	8dd'\
*Xrep	*
*rep	*
8BL 8G\	8dd'\
8d\J	8gg\J
*Xrep	*
!LO:LB:g=original	!LO:LB:g=original
=6	=6
*rep	*
8BL 8G\	8dd'\L
8d\J	8dd'\
*Xrep	*
*rep	*
8BL 8G\	(8dd\
8d\J	8b\J)
*Xrep	*
=7	=7
*rep	*
8BL 8G\	8g/L
8d\J	8g/J
*Xrep	*
8cL 8F#\	16g/LL
.	16g/
8d\J	16a/
.	16b/JJ
=	=
8BL 8G\	8g/L
8d\	8b/
8BJ 8G\	8g/J
!LO:TX:b:t=P:problem:fermata pod kreską taktową	!LO:TX:b:t=P:problem:fermata nad kreską taktową
=||8;	=||8;
16e\LL	16gg\LL
16d\JJ	16ff#\JJ
=9	=9
8c\L	8ee'\L
16c\L	(16ee\L
16B\JJ	16dd\JJ)
8A\L	8cc\L
16A\L	16cc\L
16G\JJ	16b\JJ
=10	=10
8F#\L	8a\L
8A 8F# 8D\	8a\
8A 8F# 8D\	8a\
8AJ 8F# 8D\	8dd\J
=11	=11
*tremolo	*
*2\right	*
8G 8E 8AA\L	16cc#X\LL
.	16dd\
8G 8E 8AA\	16ee\
.	16ff#\JJ
8G 8E 8AA\	16gg\LL
.	16ee\
8G 8E 8AA\J	16dd\
.	16cc#\JJ
*Xtremolo	*
=12	=12
8AL 8F# 8D\	8dd\L
8A 8F# 8D\	8dd\
8AJ 8F# 8D\	8dd\J
!LO:N:vis=8	!
16eLL 16c\	16gg\LL
!LO:N:vis=8	!
16d\JJ	16ff#\JJ
=13	=13
8c'\L	8ee\L
(16c\L	16ee\L
16B\JJ)	16dd\JJ
8A'\L	8cc\L
(16A\L	16cc\L
16G\JJ)	16b\JJ
=14	=14
8D\L	8a\L
8A 8F# 8D\	8a\
8A 8F# 8D\	8a\
8AJ 8F# 8D\	8dd\J
=15	=15
*tremolo	*
8G 8E 8AA\L	16cc#X\LL
.	16dd\
8G 8E 8AA\	16ee\
.	16ff#\JJ
8G 8E 8AA\	16gg\LL
.	16ee\
8G 8E 8AA\J	16dd\
.	16cc#\JJ
*Xtremolo	*
=16	=16
4F# 4D\	4dd\
8r	8r
!LO:TX:a:t=[segno]:problem:znak segno na kresce taktowej	!LO:TX:a:t=[segno]:problem:znak segno na kresce taktowej
==17	==17
!LO:TX:a:t=P:problem:mixed beam	!
8DD/L	8d/L
8D\J	16d/L
.	16d/JJ
*rep	*
!LO:TX:a:t=P:problem:mixed beam	!
8DD/L	8d/L
8D\J	8d/J
*Xrep	*
=18	=18
8BBL 8GG/	4.b/
8D/J	.
*rep	*
8BBL 8GG/	.
8D/J	8g/
*Xrep	*
=19	=19
8CL 8FF#/	8a\L
8D/J	8a\
*rep	*
8CL 8FF#/	8a\
8D/J	8b\J
*Xrep	*
=20	=20
8BBL 8GG/	16g\LL
.	16a\
8D/J	16b\
.	16cc\JJ
!LO:LB:g=original	!LO:LB:g=original
*rep	*
8BBL 8GG/	16dd\LL
.	16ee\
8D/J	16ff#\
.	16gg\JJ
*Xrep	*
=21	=21
!LO:TX:a:t=P:problem:mixed beam	!
8DD/L	8d/L
8D\J	16d/L
.	16d/JJ
*rep	*
!LO:TX:a:t=P:problem:mixed beam	!
8DD/L	8d/L
8D\J	8d/J
*Xrep	*
=22	=22
8BBL 8GG/	4.b/
8D/J	.
*rep	*
8BBL 8GG/	.
8D/J	8g/
*Xrep	*
=23	=23
8CL 8FF#/	8a/L
8D/J	8a/J
*rep	*
8CL 8FF#/	16a/LL
.	16g/
8D/J	16a/
.	16b/JJ
*Xrep	*
=24	=24
8BBL 8GG/	4.g/
8D/	.
8BBJ 8GG/	.
8r	8r
=25	=25
8CL 8GG/	16r
.	16gg\LL
8D/J	16ff#\
.	16gg\JJ
*rep	*
8CL 8GG/	16aa\LL
.	16gg\
8D/J	16ff#\
.	16gg\JJ
*Xrep	*
=26	=26
*rep	*
8CL 8GG/	8.gg\L
8D/J	.
.	16ee\Jk
*Xrep	*
*rep	*
8CL 8GG/	4ee\
8D/J	.
*Xrep	*
=27	=27
8BBL 8GG/	16r
.	16gg\LL
8D/J	16ff#\
.	16gg\JJ
*rep	*
8BBL 8GG/	16aa\LL
.	16gg\
8D/J	16ff#\
.	16gg\JJ
*Xrep	*
=28	=28
*rep	*
8BBL 8GG/	8.gg\L
8D/J	.
.	16dd\Jk
*Xrep	*
*rep	*
8BBL 8GG/	4dd\
8D/J	.
*Xrep	*
=29	=29
!LO:TX:a:t=P:problem:mixed beam	!
8DD/L	8d/L
8D\J	16d/L
.	16d/JJ
*rep	*
!LO:TX:a:t=P:problem:mixed beam	!
8DD/L	8d/L
8D\J	8d/J
*Xrep	*
=30	=30
8BBL 8GG/	4.b 4.g/
8D/J	.
*rep	*
8BBL 8GG/	.
8D/J	8g/
*Xrep	*
=31	=31
8CL 8FF#/	8a\L
8D/J	8a\J
*rep	*
8CL 8FF#/	16a\LL
.	16g\
8D/J	16a\
.	16b\JJ
*Xrep	*
=32	=32
8BBL 8GG/	4.g/
8D/	.
8BBJ 8GG/	.
==	==
*-	*-
!!!system-decoration: {(s1,s2)}
!!!ENC: Marta Lawrence
!!!END: 2020-11-19
!!!ENC: Marcin Jachim
!!!END: 2020-06-14
